public/images/icons/snehmilan-information.svg

<svg width="60" height="60" viewBox="0 0 60 60" fill="none" xmlns="http://www.w3.org/2000/svg">
<g clip-path="url(#clip0_1134_1333)">
<path d="M57.0957 4.83862H18.3866C17.3221 4.83862 16.4512 5.70958 16.4512 6.77408V10.6837C18.735 10.8288 20.864 11.5063 22.7317 12.5804H59.0311V6.77408C59.0311 5.70958 58.1602 4.83862 57.0957 4.83862Z" fill="#B4DD7F"/>
<path d="M25.7411 14.9029L22.7314 12.5803H59.0309V35.8058C59.0309 36.8703 58.1599 37.7412 57.0954 37.7412H29.9991V33.8703H55.16V16.4512H27.0959C26.6798 15.8996 26.2249 15.3867 25.7411 14.9029Z" fill="#FFEAA7"/>
<path d="M55.1607 16.4514V33.8705H29.9999V25.161C29.9999 21.89 28.916 18.8707 27.0967 16.4514H55.1607Z" fill="#E6E9ED"/>
<path d="M55.1604 4.83868V7.74186C55.1604 8.27411 54.7249 8.70958 54.1927 8.70958H52.2572C51.725 8.70958 51.2895 8.27411 51.2895 7.74186V1.9355C51.2895 1.40325 51.725 0.967773 52.2572 0.967773H54.1927C54.7249 0.967773 55.1604 1.40325 55.1604 1.9355V4.83868ZM47.4186 4.83868V7.74186C47.4186 8.27411 46.9831 8.70958 46.4509 8.70958H44.5154C43.9832 8.70958 43.5477 8.27411 43.5477 7.74186V1.9355C43.5477 1.40325 43.9832 0.967773 44.5154 0.967773H46.4509C46.9831 0.967773 47.4186 1.40325 47.4186 1.9355V4.83868ZM39.6768 4.83868V7.74186C39.6768 8.27411 39.2413 8.70958 38.7091 8.70958H36.7736C36.2414 8.70958 35.8059 8.27411 35.8059 7.74186V1.9355C35.8059 1.40325 36.2414 0.967773 36.7736 0.967773H38.7091C39.2413 0.967773 39.6768 1.40325 39.6768 1.9355V4.83868ZM31.935 4.83868V7.74186C31.935 8.27411 31.4995 8.70958 30.9673 8.70958H29.0318C28.4996 8.70958 28.0641 8.27411 28.0641 7.74186V1.9355C28.0641 1.40325 28.4996 0.967773 29.0318 0.967773H30.9673C31.4995 0.967773 31.935 1.40325 31.935 1.9355V4.83868ZM24.1932 4.83868V7.74186C24.1932 8.27411 23.7577 8.70958 23.2254 8.70958H21.29C20.7577 8.70958 20.3223 8.27411 20.3223 7.74186V1.9355C20.3223 1.40325 20.7577 0.967773 21.29 0.967773H23.2254C23.7577 0.967773 24.1932 1.40325 24.1932 1.9355V4.83868Z" fill="#FFEAA7"/>
<path d="M42.7445 57.8991C42.021 57.1711 41.6141 56.1869 41.6123 55.1605C41.6123 53.0218 43.3445 51.2896 45.4832 51.2896H55.1605V59.0314H45.4832C44.4187 59.0314 43.451 58.5959 42.7445 57.8991Z" fill="#E6E9ED"/>
<path d="M45.4834 51.2894V43.5476H55.1607C56.2252 43.5476 57.1929 43.9831 57.8993 44.6798C58.5961 45.3863 59.0316 46.354 59.0316 47.4185C59.0316 49.5572 57.2993 51.2894 55.1607 51.2894H45.4834Z" fill="#F0D0B4"/>
<path d="M18.7736 44.5444C21.4735 45.7056 23.2251 48.3572 23.2251 51.2894H17.4188V47.4185C17.4188 46.354 16.9833 45.3863 16.2865 44.6798C15.5585 43.9563 14.5743 43.5494 13.5479 43.5476H14.9414C15.9381 43.5476 16.9252 43.7508 17.8349 44.1379L18.7736 44.5444Z" fill="#4FC1E9"/>
<path d="M17.4195 51.2894H23.2259C24.2904 51.2894 25.1614 52.1604 25.1614 53.2249V57.0958C25.1614 57.6091 24.9574 58.1014 24.5945 58.4643C24.2315 58.8273 23.7392 59.0312 23.2259 59.0312H15.4841C12.2809 59.0312 9.67773 56.428 9.67773 53.2249V47.4185C9.67773 45.2798 11.41 43.5476 13.5486 43.5476C14.6131 43.5476 15.5809 43.9831 16.2873 44.6798C16.9841 45.3863 17.4195 46.354 17.4195 47.4185V51.2894Z" fill="#4FC1E9"/>
<path d="M37.7417 43.5476V55.1603H30.9676V53.2249C30.9676 52.1604 30.0967 51.2894 29.0322 51.2894H28.0645V43.5476H29.9999H37.7417Z" fill="#E6E9ED"/>
<path d="M22.7319 12.5805L25.7416 14.903C26.2254 15.3869 26.6803 15.8998 27.0964 16.4514C28.9157 18.8707 29.9996 21.89 29.9996 25.1609V43.5477H28.0641V51.2895H27.3286C26.9686 51.2897 26.6157 51.3904 26.3097 51.5801C26.0037 51.7699 25.7566 52.0412 25.5964 52.3637L25.1609 53.225C25.1609 52.1605 24.29 51.2895 23.2255 51.2895C23.2255 48.3573 21.4739 45.7057 18.7739 44.5445L17.8352 44.138C16.9202 43.7489 15.9361 43.5482 14.9417 43.5477H18.3868C22.6642 43.5477 26.1287 40.0833 26.1287 35.8059V24.1932H14.4192C12.3386 24.1932 10.5192 23.0803 9.52247 21.4158L7.9354 22.0255C6.06769 22.7513 4.83868 24.5416 4.83868 26.5448V35.8059C4.83868 40.0833 8.30314 43.5477 12.5805 43.5477H13.5482C11.4095 43.5477 9.67731 45.2799 9.67731 47.4186V53.225H8.70958C4.43223 53.225 0.967773 49.7605 0.967773 45.4832V25.1609C0.967773 17.1481 7.47089 10.645 15.4837 10.645L16.4514 10.6837C18.7352 10.8289 20.8642 11.5063 22.7319 12.5805Z" fill="#656D78"/>
<path d="M30.9675 53.2249V55.1604C30.9675 55.6737 30.7636 56.166 30.4006 56.529C30.0376 56.8919 29.5453 57.0958 29.032 57.0958H25.1611V53.2249L25.5966 52.3637C25.7568 52.0412 26.0038 51.7698 26.3099 51.5801C26.6159 51.3903 26.9688 51.2897 27.3288 51.2895H29.032C30.0965 51.2895 30.9675 52.1604 30.9675 53.2249ZM4.83887 35.8059V26.5447C4.83887 24.5415 6.06788 22.7512 7.93559 22.0254L9.52266 21.4158C10.0286 22.263 10.7458 22.9644 11.6041 23.4513C12.4625 23.9381 13.4325 24.1938 14.4194 24.1931H26.1288V35.8059C26.1288 40.0832 22.6644 43.5477 18.387 43.5477H12.5807C8.30333 43.5477 4.83887 40.0832 4.83887 35.8059Z" fill="#F0D0B4"/>
<path d="M11.6123 35.8059H19.3541C19.3541 36.8704 18.9186 37.8381 18.2219 38.5446C17.5154 39.2413 16.5477 39.6768 15.4832 39.6768C13.3445 39.6768 11.6123 37.9446 11.6123 35.8059Z" fill="#EF7385"/>
<path d="M10.6453 35.806C10.6453 38.474 12.8159 40.6446 15.484 40.6446C18.152 40.6446 20.3226 38.474 20.3226 35.806V34.8382H10.6453V35.806ZM18.2217 36.7737C17.822 37.9001 16.7459 38.7092 15.484 38.7092C14.222 38.7092 13.1459 37.9001 12.7463 36.7737H18.2217ZM8.70987 30.9673C8.70987 29.8999 9.57792 29.0319 10.6453 29.0319C11.7127 29.0319 12.5808 29.8999 12.5808 30.9673H14.5162C14.5162 28.8325 12.7801 27.0964 10.6453 27.0964C8.51052 27.0964 6.77441 28.8325 6.77441 30.9673H8.70987ZM20.3226 29.0319C21.39 29.0319 22.258 29.8999 22.258 30.9673H24.1935C24.1935 28.8325 22.4574 27.0964 20.3226 27.0964C18.1878 27.0964 16.4517 28.8325 16.4517 30.9673H18.3871C18.3871 29.8999 19.2552 29.0319 20.3226 29.0319Z" fill="black"/>
<path d="M57.0959 3.87091H56.1281V1.93545C56.1281 0.86805 55.2601 0 54.1927 0H52.2572C51.1898 0 50.3218 0.86805 50.3218 1.93545V3.87091H48.3863V1.93545C48.3863 0.86805 47.5183 0 46.4509 0H44.5154C43.448 0 42.58 0.86805 42.58 1.93545V3.87091H40.6445V1.93545C40.6445 0.86805 39.7765 0 38.7091 0H36.7736C35.7062 0 34.8381 0.86805 34.8381 1.93545V3.87091H32.9027V1.93545C32.9027 0.86805 32.0346 0 30.9672 0H29.0318C27.9644 0 27.0963 0.86805 27.0963 1.93545V3.87091H25.1609V1.93545C25.1609 0.86805 24.2928 0 23.2254 0H21.29C20.2226 0 19.3545 0.86805 19.3545 1.93545V3.87091H18.3868C16.7862 3.87091 15.4836 5.17347 15.4836 6.77408V9.67726C6.94634 9.67726 0 16.6236 0 25.1609V45.4831C0 50.286 3.90768 54.1927 8.70954 54.1927H8.78696C9.25824 57.4704 12.0772 60 15.4836 60H23.2254C23.8239 59.9981 24.4071 59.811 24.895 59.4645C25.3829 59.118 25.7516 58.629 25.9505 58.0645H29.0318C29.6304 58.0627 30.2137 57.8756 30.7017 57.5288C31.1896 57.1821 31.5582 56.6928 31.7569 56.1281H38.7091V42.58H30.9672V38.7091H57.0959C58.6965 38.7091 59.999 37.4065 59.999 35.8059V6.77408C59.999 5.17347 58.6965 3.87091 57.0959 3.87091ZM52.2572 1.93545H54.1927L54.1936 7.74181H52.2572V1.93545ZM44.5154 1.93545H46.4509L46.4518 7.74181H44.5154V1.93545ZM36.7736 1.93545H38.7091L38.71 7.74181H36.7736V1.93545ZM29.0318 1.93545H30.9672L30.9682 7.74181H29.0318V1.93545ZM21.29 1.93545H23.2254L23.2264 7.74181H21.29V1.93545ZM17.4191 6.77408C17.4191 6.2399 17.8536 5.80636 18.3868 5.80636H19.3545V7.74181C19.3545 8.80921 20.2226 9.67726 21.29 9.67726H23.2254C24.2928 9.67726 25.1609 8.80921 25.1609 7.74181V5.80636H27.0963V7.74181C27.0963 8.80921 27.9644 9.67726 29.0318 9.67726H30.9672C32.0346 9.67726 32.9027 8.80921 32.9027 7.74181V5.80636H34.8381V7.74181C34.8381 8.80921 35.7062 9.67726 36.7736 9.67726H38.7091C39.7765 9.67726 40.6445 8.80921 40.6445 7.74181V5.80636H42.58V7.74181C42.58 8.80921 43.448 9.67726 44.5154 9.67726H46.4509C47.5183 9.67726 48.3863 8.80921 48.3863 7.74181V5.80636H50.3218V7.74181C50.3218 8.80921 51.1898 9.67726 52.2572 9.67726H54.1927C55.2601 9.67726 56.1281 8.80921 56.1281 7.74181V5.80636H57.0959C57.6291 5.80636 58.0636 6.2399 58.0636 6.77408V11.6127H22.9632C21.2469 10.6642 19.3651 10.0529 17.4191 9.81178V6.77408ZM24.1932 57.0968C24.1932 57.631 23.7586 58.0645 23.2254 58.0645H15.4836C12.8156 58.0645 10.645 55.8939 10.645 53.2259V47.4186C10.645 45.818 11.9475 44.5154 13.5482 44.5154V44.5173H13.5675C14.3359 44.5222 15.0578 44.8222 15.6007 45.366C16.1494 45.9138 16.4513 46.6425 16.4513 47.4186V50.9982L14.6794 53.6575L16.2897 54.7307L17.9368 52.2582H23.2254C23.7586 52.2582 24.1932 52.6917 24.1932 53.2259V57.0968ZM9.16534 22.5896C9.78823 23.3896 10.5854 24.037 11.4961 24.4825C12.4068 24.9281 13.4072 25.1601 14.4211 25.1609H25.1609V35.8059C25.1609 39.5403 22.1213 42.58 18.3868 42.58H12.5804C8.84502 42.58 5.80636 39.5403 5.80636 35.8049V26.5428C5.80955 25.7622 6.04728 25.0006 6.48869 24.3567C6.93011 23.7129 7.55483 23.2166 8.2818 22.9322L9.16534 22.5896ZM17.8178 45.187L18.3955 45.4348C19.3902 45.8605 20.2599 46.5329 20.9223 47.3884C21.5847 48.2438 22.018 49.2541 22.1813 50.3237H18.3849L18.3868 47.4186C18.3868 46.6251 18.1758 45.8712 17.8178 45.187ZM29.9995 55.1614C29.9995 55.6956 29.565 56.1291 29.0318 56.1291H26.1286V53.4553L26.4596 52.7933C26.5392 52.632 26.6625 52.4963 26.8154 52.4015C26.9684 52.3067 27.1448 52.2567 27.3247 52.2572H28.065L29.0318 52.2582C29.2883 52.2582 29.5343 52.36 29.7157 52.5413C29.8972 52.7226 29.9993 52.9685 29.9995 53.2249V55.1614ZM36.7736 54.1927H31.935V53.2259C31.935 52.8853 31.8653 52.5621 31.7569 52.2582L34.8381 52.2572V50.3218L29.0318 50.3237V44.5154H36.7736V54.1927ZM27.0963 42.58V50.3382C26.4092 50.3893 25.7633 50.6861 25.277 51.1743C24.9546 50.8587 24.5634 50.6222 24.1341 50.4834C24.0147 49.2298 23.6109 48.02 22.9534 46.946C22.2958 45.8721 21.4019 44.9624 20.3397 44.2861C24.2028 43.3967 27.0954 39.9361 27.0963 35.8059V24.1932C27.1004 22.6108 26.5409 21.0786 25.5181 19.8712C24.4953 18.6638 23.076 17.86 21.5145 17.6039L20.481 17.4317L20.1635 19.341L21.1961 19.5132C22.1405 19.6679 23.0158 20.1057 23.7061 20.7685C24.3964 21.4313 24.8693 22.2881 25.0622 23.2254H14.4211C13.1634 23.2239 11.9577 22.7236 11.0684 21.8343C10.1791 20.945 9.6788 19.7393 9.67726 18.4816V18.3868L7.74181 18.4816C7.74181 19.3313 7.90729 20.1413 8.19761 20.8893L7.5831 21.1264C6.4929 21.5534 5.55612 22.2981 4.89421 23.2638C4.2323 24.2296 3.87579 25.372 3.87091 26.5428V35.8049C3.87091 39.7165 6.46344 43.0338 10.0208 44.1303C9.18112 45.0195 8.71217 46.1955 8.70954 47.4186V52.2572C4.97411 52.2572 1.93545 49.2176 1.93545 45.4831V25.1609C1.93545 17.69 8.01277 11.6127 15.4836 11.6127C22.9545 11.6127 29.0318 17.69 29.0318 25.1609V42.58H27.0963ZM34.8381 27.0963H30.9672V25.1609C30.9672 24.5038 30.9131 23.8612 30.8327 23.2254H34.8381V27.0963ZM36.7736 23.2254H44.5154V27.0963H36.7736V23.2254ZM30.9672 29.0318H34.8381V32.9027H30.9672V29.0318ZM36.7736 29.0318H44.5154V32.9027H36.7736V29.0318ZM46.4509 29.0318H54.1927V32.9027H46.4509V29.0318ZM54.1927 27.0963H46.4509V23.2254H54.1927V27.0963ZM54.1927 21.29H46.4509V17.4191H54.1927V21.29ZM44.5154 21.29H36.7736V17.4191H44.5154V21.29ZM34.8381 21.29H30.4573C30.1078 19.9335 29.5744 18.6311 28.8721 17.4191H34.8381V21.29ZM57.0959 36.7736H30.9672V34.8381H56.1281V15.4836H27.5512C26.9878 14.7861 26.3651 14.1385 25.6902 13.5482H58.0636V35.8059C58.0636 36.3401 57.6291 36.7736 57.0959 36.7736Z" fill="black"/>
<path d="M30.9668 46.451H34.8377V48.3864H30.9668V46.451ZM55.16 42.5801H44.515V50.4196C43.423 50.6442 42.4417 51.2383 41.7367 52.1019C41.0316 52.9655 40.6457 54.0457 40.6441 55.1605C40.6441 57.8285 42.8147 59.9992 45.4827 59.9992H56.1277V52.1596C57.2197 51.935 58.2009 51.3409 58.906 50.4773C59.6111 49.6138 59.997 48.5336 59.9986 47.4187C59.9986 44.7507 57.828 42.5801 55.16 42.5801ZM54.1922 58.0637H45.4827C43.8821 58.0637 42.5795 56.7611 42.5795 55.1605C42.5795 53.5599 43.8821 52.2573 45.4827 52.2573H54.1922V58.0637ZM55.16 50.3219H46.4504V44.5155H55.16C56.7606 44.5155 58.0631 45.8181 58.0631 47.4187C58.0631 49.0193 56.7606 50.3219 55.16 50.3219Z" fill="black"/>
<path d="M44.5156 54.1927H52.2574V56.1282H44.5156V54.1927ZM48.3865 46.4509H56.1283V48.3864H48.3865V46.4509Z" fill="black"/>
</g>
<defs>
<clipPath id="clip0_1134_1333">
<rect width="60" height="60" fill="white"/>
</clipPath>
</defs>
</svg>

<svg xmlns="http://www.w3.org/2000/svg" width="60" height="60" fill="none" xmlns:v="https://vecta.io/nano"><g clip-path="url(#A)"><path d="M57.096 4.839H18.387a1.94 1.94 0 0 0-1.935 1.935v3.91c2.284.145 4.413.823 6.281 1.897h36.299V6.774a1.94 1.94 0 0 0-1.935-1.935z" fill="#b4dd7f"/><path d="M25.741 14.903l-3.01-2.323h36.3v23.225a1.94 1.94 0 0 1-1.936 1.935H29.999V33.87H55.16V16.451H27.096c-.416-.552-.871-1.065-1.355-1.548z" fill="#ffeaa7"/><path d="M55.161 16.451v17.419H30v-8.709a14.45 14.45 0 0 0-2.903-8.71h28.064z" fill="#e6e9ed"/><path d="M55.16 4.839v2.903a.97.97 0 0 1-.968.968h-1.936a.97.97 0 0 1-.968-.968V1.936a.97.97 0 0 1 .968-.968h1.936a.97.97 0 0 1 .968.968v2.903zm-7.742 0v2.903a.97.97 0 0 1-.968.968h-1.935a.97.97 0 0 1-.968-.968V1.936a.97.97 0 0 1 .968-.968h1.935a.97.97 0 0 1 .968.968v2.903zm-7.742 0v2.903a.97.97 0 0 1-.968.968h-1.935a.97.97 0 0 1-.968-.968V1.936a.97.97 0 0 1 .968-.968h1.935a.97.97 0 0 1 .968.968v2.903zm-7.742 0v2.903a.97.97 0 0 1-.968.968h-1.936a.97.97 0 0 1-.968-.968V1.936a.97.97 0 0 1 .968-.968h1.936a.97.97 0 0 1 .968.968v2.903zm-7.742 0v2.903a.97.97 0 0 1-.968.968H21.29a.97.97 0 0 1-.968-.968V1.936a.97.97 0 0 1 .968-.968h1.935a.97.97 0 0 1 .968.968v2.903z" fill="#ffeaa7"/><path d="M42.745 57.899c-.724-.728-1.13-1.712-1.132-2.739a3.87 3.87 0 0 1 3.871-3.871h9.677v7.742h-9.677c-1.064 0-2.032-.435-2.739-1.132z" fill="#e6e9ed"/><path d="M45.483 51.289v-7.742h9.677c1.065 0 2.032.435 2.739 1.132.697.706 1.132 1.674 1.132 2.739a3.87 3.87 0 0 1-3.871 3.871h-9.677z" fill="#f0d0b4"/><g fill="#4fc1e9"><path d="M18.774 44.544c2.7 1.161 4.452 3.813 4.452 6.745h-5.806v-3.871c0-1.065-.436-2.032-1.132-2.739-.728-.724-1.712-1.13-2.739-1.132h1.393c.997 0 1.984.203 2.894.59l.939.407z"/><path d="M17.42 51.289h5.806a1.94 1.94 0 0 1 1.936 1.935v3.871c0 .513-.204 1.006-.567 1.369s-.855.567-1.369.567h-7.742c-3.203 0-5.806-2.603-5.806-5.806v-5.806a3.87 3.87 0 0 1 3.871-3.871c1.064 0 2.032.435 2.739 1.132.697.706 1.132 1.674 1.132 2.739v3.871z"/></g><path d="M37.742 43.548V55.16h-6.774v-1.935a1.94 1.94 0 0 0-1.935-1.935h-.968v-7.742H30h7.742z" fill="#e6e9ed"/><path d="M22.732 12.581l3.01 2.323a14.79 14.79 0 0 1 1.355 1.548A14.45 14.45 0 0 1 30 25.161v18.387h-1.936v7.742h-.735c-.36 0-.713.101-1.019.291s-.553.461-.713.784l-.435.861a1.94 1.94 0 0 0-1.935-1.936c0-2.932-1.752-5.584-4.452-6.745l-.939-.407c-.915-.389-1.899-.59-2.893-.59h3.445a7.74 7.74 0 0 0 7.742-7.742V24.193H14.419a5.7 5.7 0 0 1-4.897-2.777l-1.587.61c-1.868.726-3.097 2.516-3.097 4.519v9.261a7.74 7.74 0 0 0 7.742 7.742h.968a3.87 3.87 0 0 0-3.871 3.871v5.806H8.71a7.74 7.74 0 0 1-7.742-7.742V25.161c0-8.013 6.503-14.516 14.516-14.516l.968.039c2.284.145 4.413.823 6.281 1.897z" fill="#656d78"/><path d="M30.968 53.225v1.936c0 .513-.204 1.006-.567 1.369s-.855.567-1.369.567h-3.871v-3.871l.435-.861c.16-.322.407-.594.713-.784s.659-.29 1.019-.291h1.703a1.94 1.94 0 0 1 1.936 1.935zM4.839 35.806v-9.261c0-2.003 1.229-3.793 3.097-4.519l1.587-.61a5.7 5.7 0 0 0 4.897 2.777h11.709v11.613a7.74 7.74 0 0 1-7.742 7.742h-5.806a7.74 7.74 0 0 1-7.742-7.742z" fill="#f0d0b4"/><path d="M11.612 35.806h7.742c0 1.064-.435 2.032-1.132 2.739-.707.697-1.674 1.132-2.739 1.132a3.87 3.87 0 0 1-3.871-3.871z" fill="#ef7385"/><g fill="#000"><path d="M10.645 35.806c0 2.668 2.171 4.839 4.839 4.839s4.839-2.171 4.839-4.839v-.968h-9.677v.968zm7.576.968a2.91 2.91 0 0 1-5.475 0h5.475zM8.71 30.967a1.94 1.94 0 0 1 1.935-1.935 1.94 1.94 0 0 1 1.935 1.935h1.935c0-2.135-1.736-3.871-3.871-3.871s-3.871 1.736-3.871 3.871H8.71zm11.613-1.935a1.94 1.94 0 0 1 1.935 1.935h1.936c0-2.135-1.736-3.871-3.871-3.871s-3.871 1.736-3.871 3.871h1.935a1.94 1.94 0 0 1 1.936-1.935zM57.096 3.871h-.968V1.935A1.94 1.94 0 0 0 54.193 0h-1.936a1.94 1.94 0 0 0-1.935 1.935V3.87h-1.936V1.935A1.94 1.94 0 0 0 46.451 0h-1.935a1.94 1.94 0 0 0-1.935 1.935V3.87h-1.935V1.935A1.94 1.94 0 0 0 38.709 0h-1.935a1.94 1.94 0 0 0-1.936 1.935V3.87h-1.935V1.935A1.94 1.94 0 0 0 30.967 0h-1.935a1.94 1.94 0 0 0-1.936 1.935V3.87h-1.935V1.935A1.94 1.94 0 0 0 23.225 0H21.29a1.94 1.94 0 0 0-1.935 1.935V3.87h-.968a2.91 2.91 0 0 0-2.903 2.903v2.903C6.946 9.677 0 16.624 0 25.161v20.322c0 4.803 3.908 8.71 8.71 8.71h.077A6.78 6.78 0 0 0 15.484 60h7.742a2.9 2.9 0 0 0 2.725-1.935h3.081a2.9 2.9 0 0 0 2.725-1.936h6.952V42.58h-7.742v-3.871h26.129a2.91 2.91 0 0 0 2.903-2.903V6.774a2.91 2.91 0 0 0-2.903-2.903zm-4.839-1.935h1.936l.001 5.806h-1.936V1.935zm-7.742 0h1.935l.001 5.806h-1.936V1.935zm-7.742 0h1.935l.001 5.806h-1.936V1.935zm-7.742 0h1.935l.001 5.806h-1.936V1.935zm-7.742 0h1.935l.001 5.806H21.29V1.935zm-3.871 4.839a.97.97 0 0 1 .968-.968h.968v1.935a1.94 1.94 0 0 0 1.935 1.935h1.935a1.94 1.94 0 0 0 1.936-1.935V5.806h1.935v1.935a1.94 1.94 0 0 0 1.936 1.935h1.935a1.94 1.94 0 0 0 1.936-1.935V5.806h1.935v1.935a1.94 1.94 0 0 0 1.936 1.935h1.935a1.94 1.94 0 0 0 1.935-1.935V5.806h1.935v1.935a1.94 1.94 0 0 0 1.935 1.935h1.935a1.94 1.94 0 0 0 1.935-1.935V5.806h1.936v1.935a1.94 1.94 0 0 0 1.935 1.935h1.936a1.94 1.94 0 0 0 1.935-1.935V5.806h.968a.97.97 0 0 1 .968.968v4.839h-35.1a15.37 15.37 0 0 0-5.544-1.801V6.774zm6.774 50.323a.97.97 0 0 1-.968.968h-7.742c-2.668 0-4.839-2.171-4.839-4.839V47.42a2.91 2.91 0 0 1 2.903-2.903v.002h.019a2.88 2.88 0 0 1 2.884 2.901V51l-1.772 2.659 1.61 1.073 1.647-2.472h5.289a.97.97 0 0 1 .968.968v3.871zM9.165 22.59a6.67 6.67 0 0 0 2.331 1.893 6.65 6.65 0 0 0 2.925.678h10.74v10.645c0 3.734-3.04 6.774-6.774 6.774H12.58c-3.735 0-6.774-3.04-6.774-6.775v-9.262c.003-.781.241-1.542.682-2.186s1.066-1.14 1.793-1.424l.884-.343zm8.652 22.597l.578.248a6.36 6.36 0 0 1 2.527 1.954c.662.855 1.096 1.866 1.259 2.935h-3.796l.002-2.905c0-.793-.211-1.547-.569-2.232zM30 55.161a.97.97 0 0 1-.968.968h-2.903v-2.674l.331-.662a.96.96 0 0 1 .865-.536h.74l.967.001a.97.97 0 0 1 .968.967v1.937zm6.774-.969h-4.839v-.967a2.87 2.87 0 0 0-.178-.968l3.081-.001v-1.935l-5.806.002v-5.808h7.742v9.677zM27.096 42.58v7.758a2.87 2.87 0 0 0-1.819.836c-.322-.316-.714-.552-1.143-.691a8.28 8.28 0 0 0-3.794-6.197c3.863-.889 6.756-4.35 6.757-8.48V24.193a6.66 6.66 0 0 0-5.582-6.589l-1.033-.172-.318 1.909 1.033.172a4.73 4.73 0 0 1 3.866 3.712H14.421a4.75 4.75 0 0 1-4.744-4.744v-.095l-1.935.095c0 .85.165 1.66.456 2.408l-.615.237a5.85 5.85 0 0 0-2.689 2.137 5.84 5.84 0 0 0-1.023 3.279v9.262c0 3.912 2.593 7.229 6.15 8.325a4.8 4.8 0 0 0-1.311 3.288v4.839c-3.735 0-6.774-3.04-6.774-6.774V25.161c0-7.471 6.077-13.548 13.548-13.548s13.548 6.077 13.548 13.548V42.58h-1.936zm7.742-15.484h-3.871v-1.935c0-.657-.054-1.3-.134-1.936h4.005v3.871zm1.936-3.871h7.742v3.871h-7.742v-3.871zm-5.806 5.806h3.871v3.871h-3.871v-3.871zm5.806 0h7.742v3.871h-7.742v-3.871zm9.677 0h7.742v3.871h-7.742v-3.871zm7.742-1.936h-7.742v-3.871h7.742v3.871zm0-5.806h-7.742v-3.871h7.742v3.871zm-9.677 0h-7.742v-3.871h7.742v3.871zm-9.677 0h-4.381a15.37 15.37 0 0 0-1.585-3.871h5.966v3.871zm22.258 15.484h-26.13v-1.936h25.161V15.484H27.551a15.54 15.54 0 0 0-1.861-1.935h32.373v22.258a.97.97 0 0 1-.968.968zm-26.13 9.678h3.871v1.935h-3.871v-1.935zM55.16 42.58H44.515v7.84a4.85 4.85 0 0 0-3.871 4.741c0 2.668 2.171 4.839 4.839 4.839h10.645v-7.84a4.85 4.85 0 0 0 3.871-4.741c0-2.668-2.171-4.839-4.839-4.839zm-.968 15.484h-8.709a2.91 2.91 0 0 1-2.903-2.903 2.91 2.91 0 0 1 2.903-2.903h8.709v5.806zm.968-7.742h-8.71v-5.806h8.71a2.91 2.91 0 0 1 2.903 2.903 2.91 2.91 0 0 1-2.903 2.903zm-10.644 3.871h7.742v1.935h-7.742v-1.935zm3.871-7.742h7.742v1.936h-7.742v-1.936z"/></g></g><defs><clipPath id="A"><path fill="#fff" d="M0 0h60v60H0z"/></clipPath></defs></svg>
